X: 13
T: Knowle Park
T: Knole Park
R: reel
M: C|
L: 1/8
Z: 2010 John Chambers <jc:trillian.mit.edu>
B: Anonymous manuscript tune book (1800-1840) p.33
F: http://www.asaplive.com/archive/browse_by_collection.asp
N: The asaplive.com web site is complex, and links to its files don't usually work.
K: G
dc | Bdg2 Bdg2 | fa c'4 dc | Bdg2 eac'a | g4 {ag}f2dc | Bdg2 Bdg2 |
fa c'4 dc | Bgec' bgaf | g2g2 g2 :||: fg | ad'bg fage | {e}d^cde {g}fefg |
ad'bg fage | dd'^c'd' =c'afd | Bdg2 Bdg2 | fa c'4 dc | Bgec' bgae | g2g2 g2 :|


%%sep 5 1 500

